static/assets/img/icons/theme/media/playlist-2.svg

<svg height="24" viewBox="0 0 24 24" width="24" xmlns="http://www.w3.org/2000/svg"><g fill="none" fill-rule="evenodd"><path d="m0 0h24v24h-24z" opacity="0"/><g fill="#000"><path d="m11.5 5h7c.8284271 0 1.5.67157288 1.5 1.5s-.6715729 1.5-1.5 1.5h-7c-.8284271 0-1.5-.67157288-1.5-1.5s.6715729-1.5 1.5-1.5zm-6 12h13c.8284271 0 1.5.6715729 1.5 1.5s-.6715729 1.5-1.5 1.5h-13c-.82842712 0-1.5-.6715729-1.5-1.5s.67157288-1.5 1.5-1.5zm0-6h13c.8284271 0 1.5.6715729 1.5 1.5s-.6715729 1.5-1.5 1.5h-13c-.82842712 0-1.5-.6715729-1.5-1.5s.67157288-1.5 1.5-1.5z" opacity=".3"/><path d="m4.82866499 9.40751652 2.87469059-2.50744831c.20810169-.18151666.22965312-.49736474.04813646-.70546643-.01459161-.0167287-.03028106-.03246711-.04696422-.04711075l-2.87469059-2.52326023c-.20753521-.18216407-.5234489-.1615967-.70561297.04593851-.08007089.09122287-.12422426.20845783-.12422426.32983723v5.03070854c0 .27614237.22385763.5.5.5.12084305 0 .23759731-.0437648.32866499-.12319856z"/></g></g></svg>

<svg width="24px" height="24px" viewBox="0 0 24 24" version="1.1" xmlns="http://www.w3.org/2000/svg" xmlns:xlink="http://www.w3.org/1999/xlink">
    <title>Icon For Playlist#2</title>
    <g stroke="none" stroke-width="1" fill="none" fill-rule="evenodd">
        <rect opacity="0" x="0" y="0" width="24" height="24"></rect>
        <path d="M11.5,5 L18.5,5 C19.3284271,5 20,5.67157288 20,6.5 C20,7.32842712 19.3284271,8 18.5,8 L11.5,8 C10.6715729,8 10,7.32842712 10,6.5 C10,5.67157288 10.6715729,5 11.5,5 Z M5.5,17 L18.5,17 C19.3284271,17 20,17.6715729 20,18.5 C20,19.3284271 19.3284271,20 18.5,20 L5.5,20 C4.67157288,20 4,19.3284271 4,18.5 C4,17.6715729 4.67157288,17 5.5,17 Z M5.5,11 L18.5,11 C19.3284271,11 20,11.6715729 20,12.5 C20,13.3284271 19.3284271,14 18.5,14 L5.5,14 C4.67157288,14 4,13.3284271 4,12.5 C4,11.6715729 4.67157288,11 5.5,11 Z" fill="#000000" opacity="0.3"></path>
        <path d="M4.82866499,9.40751652 L7.70335558,6.90006821 C7.91145727,6.71855155 7.9330087,6.40270347 7.75149204,6.19460178 C7.73690043,6.17787308 7.72121098,6.16213467 7.70452782,6.14749103 L4.82983723,3.6242308 C4.62230202,3.44206673 4.30638833,3.4626341 4.12422426,3.67016931 C4.04415337,3.76139218 4,3.87862714 4,4.00000654 L4,9.03071508 C4,9.30685745 4.22385763,9.53071508 4.5,9.53071508 C4.62084305,9.53071508 4.73759731,9.48695028 4.82866499,9.40751652 Z" fill="#000000"></path>
    </g>
</svg>
